X:72
T:Because He was A Bonny Lad
C:Cole Richardson
Z:Jack Campin, http://www.campin.me.uk/
S:Northumbrian Minstrelsy
M:4/4
L:1/8
K:G
d|B>AGg e/f/g d>B|c>edB cAAc|\
  B>AGg e/f/g d>B|c>edc BGG:|
d|BGdG  eGdG     |c>edB cAAc|\
  BGdG  eGdG     |c>edc BGG:|

